X:801
T:(untitled)
C:John Malchair's Third Collection of Tunes
F:https://www.vwml.org/record/Malchair/3619/p80
F:www.vwml.org/topics/historic-dance-and-tune-books/Malchair
Z:Eric Conrad Mar 2020
M:3/4
L:1/8
K:Cmin
P:A
|: g2g2ge | g2f2{gf}ef | g2afge | g2{g}f2e2 :|
P:B
|: c2eg(df) | (ec)egd2 | c2edfg | dec4 :|

